X:1
T:Litania - Lasso
T:#
%%score [ 1 2 3 4 ]
L:1/8
Q:1/4=300
M:none
K:F
V:1 treble nm="Soprano" snm="S"
V:2 treble nm="Alto" snm="A"
V:3 treble-8 nm="Tenor" snm="T"
V:4 bass nm="Bass" snm="B"
V:1
"^Litania""^Orlando di Lasso\n(1530-94)" F8 F8 | E8 D8 | E8 F16 || F16 | E8 D8 |[M:4/2] E8 F16 || %6
w: Ky- ri-|e e-|lei- son.|Chri-|ste e-|lei- son.|
w: ||||||
w: ||||||
 F8 F8 | E8 D8 | E8 F16 || F8 G8 | A8 F8 | G8 F16 || F8 G8 | A8 F8 | G8 F16 || %15
w: Ky- ri-|e e-|lei- son.|Chri- ste|* au-|di nos.|Chri- ste|ex- au-|di nos.|
w: |||||||||
w: |||||||||
[Q:1/4=150][Q:1/4=150][Q:1/4=150][Q:1/4=150] z22 | %16
w: |
w: |
w: |
[Q:1/4=300][Q:1/4=300][Q:1/4=300][Q:1/4=300] A8 A8 | G8 F8 | E8 F16 |] %19
w: Mi- se-|re- re|no- bis.|
w: |||
w: |||
[Q:1/4=150][Q:1/4=150][Q:1/4=150][Q:1/4=150] z22 | %20
w: |
w: |
w: |
[Q:1/4=300][Q:1/4=300][Q:1/4=300][Q:1/4=300] F16 | E8 D8 | E8 F16 |] %23
w: O-|ra pro|no- bis.|
w: |||
w: |||
[Q:1/4=150][Q:1/4=150][Q:1/4=150][Q:1/4=150] z22 | %24
w: |
w: |
w: |
[Q:1/4=300][Q:1/4=300][Q:1/4=300][Q:1/4=300] F16 | E8 D8 | E8 F16 |] %27
w: O-|ra pro|no- bis.|
w: |||
w: |||
[Q:1/4=150][Q:1/4=150][Q:1/4=150][Q:1/4=150] z22 | %28
w: |
w: |
w: |
[Q:1/4=300][Q:1/4=300][Q:1/4=300][Q:1/4=300] F16 | E8 D8 | E8 F16 |] %31
w: O-|ra pro|no- bis.|
w: |||
w: |||
[Q:1/4=150][Q:1/4=150][Q:1/4=150][Q:1/4=150] z22 | %32
w: |
w: |
w: |
[Q:1/4=300][Q:1/4=300][Q:1/4=300][Q:1/4=300] F16 | E8 D8 | E8 F16 |] %35
w: O-|ra pro|no- bis.|
w: |||
w: |||
[Q:1/4=150][Q:1/4=150][Q:1/4=150][Q:1/4=150] z22 | %36
w: |
w: |
w: |
[Q:1/4=300][Q:1/4=300][Q:1/4=300][Q:1/4=300] F16 | E8 D8 | E8 F16 |] %39
w: O-|ra pro|no- bis.|
w: |||
w: |||
[Q:1/4=150][Q:1/4=150][Q:1/4=150][Q:1/4=150] z22 | %40
w: |
w: |
w: |
[Q:1/4=300][Q:1/4=300][Q:1/4=300][Q:1/4=300] F16 | E8 D8 | E8 F16 |] %43
w: O-|ra pro|no- bis.|
w: |||
w: |||
[Q:1/4=150][Q:1/4=150][Q:1/4=150][Q:1/4=150] z12 | %44
w: |
w: |
w: |
[Q:1/4=300][Q:1/4=300][Q:1/4=300][Q:1/4=300] c8 B8 | A8 A8 | A8 F8 | G8 A16 || A8 A8 | G8 F8 | %50
w: ||||Par- ce|no- bis|
w: qui tol-|lis pec-|ca- ta|mun- di,|Ex- au-|di nos|
w: ||||Mi- se-|re- re|
 E8 E8 | F16 |] %52
w: Do- mi-|ne.|
w: Do- mi-|ne.|
w: no\- *|bis.|
V:2
 C8 C8 | C8 A,8 | C8 C16 || C16 | C8 A,8 |[M:4/2] C8 C16 || C8 C8 | C8 A,8 | C8 C16 || D8 E8 | %10
w: Ky- ri-|e e-|lei- son.|Chri-|ste e-|lei- son.|Ky- ri-|e e-|lei- son.|Chri- ste|
w: ||||||||||
w: ||||||||||
 F8 D8 | _E8 D16 || D8 E8 | F8 D8 | _E8 D16 || z22 | F8 F8 | E8 D4 (A,2 B,2 | C8) C16 |] z22 | %20
w: * au-|di nos.|Chri- ste|ex- au-|di nos.||Mi- se-|re- re no\- *|* bis.||
w: ||||||||||
w: ||||||||||
 (C8 D8) | C8 A,8 | C8 C16 |] z22 | (C8 D8) | C8 A,8 | C8 C16 |] z22 | (C8 D8) | C8 A,8 | C8 C16 |] %31
w: O\- *|ra pro|no- bis.||O\- *|ra pro|no- bis.||O\- *|ra pro|no- bis.|
w: |||||||||||
w: |||||||||||
 z22 | (C8 D8) | C8 A,8 | C8 C16 |] z22 | (C8 D8) | C8 A,8 | C8 C16 |] z22 | (C8 D8) | C8 A,8 | %42
w: |O\- *|ra pro|no- bis.||O\- *|ra pro|no- bis.||O\- *|ra pro|
w: |||||||||||
w: |||||||||||
 C8 C16 |] z12 | F8 D8 | F8 F8 | E8 D8 | E8 F16 || F8 F8 | E8 D4 (A,2 B,2 | C12) C4 | C16 |] %52
w: no- bis.||||||Par- ce|no- bis Do\- *|* mi-|ne.|
w: ||qui tol-|lis pec-|ca- ta|mun- di,|Ex- au-|di nos Do\- *|* mi-|ne.|
w: ||||||Mi- se-|re- re no\- *||bis.|
V:3
 A8 A8 | G8 F8 | G8 A16 || A16 | G8 F8 |[M:4/2][K:treble-8] G8 A16 || A8 A8 | G8 F8 | G8 A16 || %9
w: Ky- ri-|e e-|lei- son.|Chri-|ste e-|lei- son.|Ky- ri-|e e-|lei- son.|
w: |||||||||
w: |||||||||
w: |||||||||
w: |||||||||
w: |||||||||
w: |||||||||
 A8 c8- | c8 B8 | B8 B16 || A8 c8 | c8 B8 | B8 B16 || F16 G2 A4 | d8 c8 | (c6 B2 A4) F4 | G8 F16 |] %19
w: Chri- ste|* au-|di nos.|Chri- ste|ex- au-|di nos.|Pater~de~coelis De- us,|Mi- se-|re\- * * re|no- bis.|
w: ||||||Fili~Redemptor~mundi De- us,||||
w: ||||||Spiritus~sancte De- us,||||
w: ||||||Sancta~Trinitas~unus De- us,||||
w: ||||||||||
w: ||||||||||
w: ||||||||||
 F16 G2 A4 | (A8 B8) | G8 F8 | G8 A16 |] F16 G2 A4 | (A8 B8) | G8 F8 | G8 A16 |] F16 G2 A4 | %28
w: Sancta~Ma- ri- a,|O\- *|ra pro|no- bis.|Mater~castis- si- ma,~|O\- *|ra pro|no- bis.|Mater~Crea- to- ris,~|
w: Sancta~Dei~Ge- ni- trix,||||Mater~invio- la- ta,~||||Mater~Salva- to- ris,~|
w: Sancta~Virgo~vir- gi- num,||||Mater~inteme- ra- ta,||||Virgo~prudentis- si- ma,~|
w: Mater Chri- sti,||||Mater~ama- bi- lis,||||Virgo~vene- ran- da,~|
w: Mater~divinae~gra- ti- ae,||||Mater~admira- bi- lis,~||||Virgo~prædi- can- da,~|
w: Mater~puris- si- ma,~||||Mater~boni~Consi- li- i,~||||Virgo po- tens,~|
w: |||||||||
 (A8 B8) | G8 F8 | G8 A16 |] F16 G2 A4 | (A8 B8) | G8 F8 | G8 A16 |] F16 G2 A4 | (A8 B8) | G8 F8 | %38
w: O\- *|ra pro|no- bis.|Virgo cle- mens,~|O\- *|ra pro|no- bis.|Vas~honora- bi- le,~|O\- *|ra pro|
w: |||Virgo~fi- de- lis,||||Vas~insigne~devoti- o- nis,~|||
w: |||Speculum~iusti- ti- æ,~||||Rosa~mys- ti- ca,~|||
w: |||Sedes~sapien- ti- æ,~||||Turris~Davi- di- ca,~|||
w: |||Causa~nostræ~læti- ti- æ,~||||Turris~ebur- ne- a,~|||
w: |||Vas~spiritu- a- le,~||||Domus~au- re- a,|||
w: ||||||||||
 G8 A16 |] F16 G2 A4 | (A8 B8) | G8 F8 | G8 A16 |] F2 G2 (A2 B2) A4 | A8 B8 | c8 c8 | c8 A8 | %47
w: no- bis.|Foederis ar- ca,|O\- *|ra pro|no- bis.|A- gnus De\- * i,||||
w: |Ianua cæ- li,||||A- gnus De\- * i,|qui tol-|lis pec-|ca- ta|
w: |Stella~matu- ti- na,||||A- gnus De\- * i,||||
w: |Salus~infir- mo- rum,~||||||||
w: |Refugium~pecca- to- rum,~||||||||
w: |Consolatrix~affli- cto- rum,||||||||
w: |Auxilium~Christia- no- rum,~~||||||||
 c8 c16 || d8 c8 | (c6 B2 A4) F4 | G12 G4 | F16 |] %52
w: |Par- ce|no\- * * bis|Do- mi-|ne.|
w: mun- di,|Ex- au-|di * * nos|Do- mi-|ne.|
w: |Mi- se-|re\- * * re|no\- *|bis.|
w: |||||
w: |||||
w: |||||
w: |||||
V:4
 F,8 F,8 | C,8 D,8 | C,8 F,16 || F,16 | C,8 D,8 |[M:4/2] C,8 F,16 || F,8 F,8 | C,8 D,8 | %8
w: Ky- ri-|e e-|lei- son.|Chri-|ste e-|lei- son.|Ky- ri-|e e-|
w: ||||||||
w: ||||||||
 C,8 F,16 || D,8 C,8 | F,8 B,,8 | _E,8 B,,16 || D,8 C,8 | F,8 B,,8 | _E,8 B,,16 || z22 | D,8 F,8 | %17
w: lei- son.|Chri- ste|* au-|di nos.|Chri- ste|ex- au-|di nos.||Mi- se-|
w: |||||||||
w: |||||||||
 C,8 D,8 | C,8 F,,16 |] z22 | (F,8 B,,8) | C,8 D,8 | C,8 F,16 |] z22 | (F,8 B,,8) | C,8 D,8 | %26
w: re- re|no- bis.||O\- *|ra pro|no- bis.||O\- *|ra pro|
w: |||||||||
w: |||||||||
 C,8 F,16 |] z22 | (F,8 B,,8) | C,8 D,8 | C,8 F,16 |] z22 | (F,8 B,,8) | C,8 D,8 | C,8 F,16 |] %35
w: no- bis.||O\- *|ra pro|no- bis.||O\- *|ra pro|no- bis.|
w: |||||||||
w: |||||||||
 z22 | (F,8 B,,8) | C,8 D,8 | C,8 F,16 |] z22 | (F,8 B,,8) | C,8 D,8 | C,8 F,16 |] z12 | C,8 G,8 | %45
w: |O\- *|ra pro|no- bis.||O\- *|ra pro|no- bis.|||
w: |||||||||qui tol-|
w: ||||||||||
 F,8 F,8 | A,8 D,8 | C,8 F,16 || D,8 F,8 | C,8 D,8 | C,8 C,8 | F,,16 |] %52
w: |||Par- ce|no- bis|Do- mi-|ne.|
w: lis pec-|ca- ta|mun- di,|Ex- au-|di nos|Do- mi-|ne.|
w: |||Mi- se-|re- re|no\- *|bis.|

